SVG_Azure_All/Azure LightHouse My Role.svg

<?xml version="1.0" encoding="UTF-8" standalone="no"?>
<!-- Generated by Microsoft Visio, SVG Export Azure LightHouse My Role.svg Page-1 -->

<svg
   xmlns:dc="http://purl.org/dc/elements/1.1/"
   xmlns:cc="http://creativecommons.org/ns#"
   xmlns:rdf="http://www.w3.org/1999/02/22-rdf-syntax-ns#"
   xmlns:svg="http://www.w3.org/2000/svg"
   xmlns="http://www.w3.org/2000/svg"
   xmlns:sodipodi="http://sodipodi.sourceforge.net/DTD/sodipodi-0.dtd"
   xmlns:inkscape="http://www.inkscape.org/namespaces/inkscape"
   width="0.78740579in"
   height="0.78748208in"
   viewBox="0 0 56.693285 56.698998"
   xml:space="preserve"
   class="st7"
   version="1.1"
   id="svg59"
   sodipodi:docname="Azure LightHouse My Role.svg"
   style="font-size:12px;overflow:visible;color-interpolation-filters:sRGB;fill:none;fill-rule:evenodd;stroke-linecap:square;stroke-miterlimit:3"
   inkscape:version="0.92.5 (2060ec1f9f, 2020-04-08)"><metadata
   id="metadata65"><rdf:RDF><cc:Work
       rdf:about=""><dc:format>image/svg+xml</dc:format><dc:type
         rdf:resource="http://purl.org/dc/dcmitype/StillImage" /></cc:Work></rdf:RDF></metadata><defs
   id="defs63" /><sodipodi:namedview
   pagecolor="#ffffff"
   bordercolor="#666666"
   borderopacity="1"
   objecttolerance="10"
   gridtolerance="10"
   guidetolerance="10"
   inkscape:pageopacity="0"
   inkscape:pageshadow="2"
   inkscape:window-width="640"
   inkscape:window-height="480"
   id="namedview61"
   showgrid="false"
   inkscape:zoom="1.7193066"
   inkscape:cx="37.79508"
   inkscape:cy="23.279613"
   inkscape:window-x="0"
   inkscape:window-y="0"
   inkscape:window-maximized="0"
   inkscape:current-layer="svg59" />
	<style
   type="text/css"
   id="style2">
	<![CDATA[
		.st1 {fill:#0072c6;stroke:none;stroke-linecap:butt;stroke-width:12.24}
		.st2 {fill:#ffffff;stroke:none;stroke-linecap:butt;stroke-width:12.24}
		.st3 {fill:#7a7a7a;stroke:none;stroke-linecap:butt;stroke-width:12.24}
		.st4 {fill:#804998;stroke:none;stroke-linecap:butt;stroke-width:12.24}
		.st5 {fill:#3999c6;stroke:none;stroke-linecap:butt;stroke-width:12.24}
		.st6 {fill:#ffffff;fill-opacity:0.2;stroke:none;stroke-linecap:butt;stroke-width:12.24}
		.st7 {fill:none;fill-rule:evenodd;font-size:12px;overflow:visible;stroke-linecap:square;stroke-miterlimit:3}
	]]>
	</style>

	<g
   id="g57"
   transform="translate(-12.240154,-12.2353)">
		<title
   id="title4">Page-1</title>
		<g
   id="group7942-1"
   transform="translate(12.24,-34.0157)">
			<title
   id="title6">Azure LightHouse My Role</title>
			<g
   id="group7943-2">
				<title
   id="title8">g22</title>
				<g
   id="shape7944-3">
					<title
   id="title10">path4</title>
					<path
   d="M 14.17,102.95 H 1.7 A 1.70079,1.7355 0 0 1 0,101.21 V 88.49 a 1.70079,1.7355 0 0 1 1.7,-1.74 h 12.47 a 1.70079,1.7355 0 0 1 1.7,1.74 v 12.72 a 1.70079,1.7355 0 0 1 -1.7,1.74 z"
   class="st1"
   id="path12"
   inkscape:connector-curvature="0"
   style="fill:#0072c6;stroke:none;stroke-width:12.23999977;stroke-linecap:butt" />
				</g>
				<g
   id="shape7945-5"
   transform="translate(3.40157,-3.47099)">
					<title
   id="title15">path6</title>
					<rect
   x="0"
   y="93.692703"
   width="9.0708704"
   height="9.25599"
   class="st2"
   id="rect17"
   style="fill:#ffffff;stroke:none;stroke-width:12.23999977;stroke-linecap:butt" />
				</g>
				<g
   id="shape7946-7"
   transform="translate(19.2756)">
					<title
   id="title20">path8</title>
					<path
   d="M 14.17,102.95 H 1.7 A 1.70079,1.7355 0 0 1 0,101.21 V 88.49 a 1.70079,1.7355 0 0 1 1.7,-1.74 h 12.47 a 1.70079,1.7355 0 0 1 1.7,1.74 v 12.72 a 1.70079,1.7355 0 0 1 -1.7,1.74 z"
   class="st1"
   id="path22"
   inkscape:connector-curvature="0"
   style="fill:#0072c6;stroke:none;stroke-width:12.23999977;stroke-linecap:butt" />
				</g>
				<g
   id="shape7947-9"
   transform="translate(22.6772,-3.47099)">
					<title
   id="title25">path10</title>
					<rect
   x="0"
   y="93.692703"
   width="9.0708704"
   height="9.25599"
   class="st2"
   id="rect27"
   style="fill:#ffffff;stroke:none;stroke-width:12.23999977;stroke-linecap:butt" />
				</g>
				<g
   id="shape7948-11"
   transform="translate(26.0787,-16.198)">
					<title
   id="title30">path12</title>
					<rect
   x="0"
   y="87.9077"
   width="2.26772"
   height="15.041"
   class="st3"
   id="rect32"
   style="fill:#7a7a7a;stroke:none;stroke-width:12.23999977;stroke-linecap:butt" />
				</g>
				<g
   id="shape7949-13"
   transform="translate(14.7402,-31.239)">
					<title
   id="title35">path14</title>
					<path
   d="m 24.94,90.22 c 0,7.03 -5.58,12.73 -12.47,12.73 C 5.58,102.95 0,97.25 0,90.22 0,83.19 5.58,77.49 12.47,77.49 c 6.89,0 12.47,5.7 12.47,12.73 z"
   class="st4"
   id="path37"
   inkscape:connector-curvature="0"
   style="fill:#804998;stroke:none;stroke-width:12.23999977;stroke-linecap:butt" />
				</g>
				<g
   id="shape7950-15"
   transform="translate(36.2835)">
					<title
   id="title40">path16</title>
					<path
   d="m 16.89,77.49 c 0,3.66 -2.99,6.62 -6.69,6.62 -3.69,0 -6.69,-2.96 -6.69,-6.62 0,-3.65 3,-6.61 6.69,-6.61 3.7,0 6.69,2.96 6.69,6.61 z M 14.38,86.75 10.2,93.32 6.03,86.75 H 0 v 16.2 h 20.41 v -16.2 z"
   class="st5"
   id="path42"
   inkscape:connector-curvature="0"
   style="fill:#3999c6;stroke:none;stroke-width:12.23999977;stroke-linecap:butt" />
				</g>
				<g
   id="shape7951-17"
   transform="translate(14.7662,-35.7848)">
					<title
   id="title45">path18</title>
					<path
   d="M 20.46,86.59 C 16.04,82.07 8.86,82.07 4.43,86.59 0,91.1 0,98.43 4.43,102.95 Z"
   class="st6"
   id="path47"
   inkscape:connector-curvature="0"
   style="fill:#ffffff;fill-opacity:0.2;stroke:none;stroke-width:12.23999977;stroke-linecap:butt" />
				</g>
				<g
   id="shape7952-19"
   transform="translate(6.80315,-16.198)">
					<title
   id="title50">path20</title>
					<path
   d="M 31.86,93.69 H 2.27 A 2.26772,2.314 -180 0 0 0,96.01 v 6.94 h 2.27 v -6.94 h 29.95 a 7.40409,7.5552 0 0 1 -0.36,-2.32 z"
   class="st3"
   id="path52"
   inkscape:connector-curvature="0"
   style="fill:#7a7a7a;stroke:none;stroke-width:12.23999977;stroke-linecap:butt" />
				</g>
			</g>
		</g>
	</g>
</svg>

<?xml version="1.0" encoding="UTF-8" standalone="no"?>
<!DOCTYPE svg PUBLIC "-//W3C//DTD SVG 1.1//EN" "http://www.w3.org/Graphics/SVG/1.1/DTD/svg11.dtd">
<!-- Generated by Microsoft Visio, SVG Export Azure LightHouse My Role.svg Page-1 -->
<svg xmlns="http://www.w3.org/2000/svg" xmlns:xlink="http://www.w3.org/1999/xlink" xmlns:ev="http://www.w3.org/2001/xml-events"
		width="1.1274in" height="1.42984in" viewBox="0 0 81.1729 102.949" xml:space="preserve" color-interpolation-filters="sRGB"
		class="st7">
	<style type="text/css">
	<![CDATA[
		.st1 {fill:#0072c6;stroke:none;stroke-linecap:butt;stroke-width:12.24}
		.st2 {fill:#ffffff;stroke:none;stroke-linecap:butt;stroke-width:12.24}
		.st3 {fill:#7a7a7a;stroke:none;stroke-linecap:butt;stroke-width:12.24}
		.st4 {fill:#804998;stroke:none;stroke-linecap:butt;stroke-width:12.24}
		.st5 {fill:#3999c6;stroke:none;stroke-linecap:butt;stroke-width:12.24}
		.st6 {fill:#ffffff;fill-opacity:0.2;stroke:none;stroke-linecap:butt;stroke-width:12.24}
		.st7 {fill:none;fill-rule:evenodd;font-size:12px;overflow:visible;stroke-linecap:square;stroke-miterlimit:3}
	]]>
	</style>

	<g>
		<title>Page-1</title>
		<g id="group7747-1" transform="translate(12.24,-34.0157)">
			<title>Azure LightHouse My Role</title>
			<g id="group7748-2">
				<title>g22</title>
				<g id="shape7749-3">
					<title>path4</title>
					<path d="M14.17 102.95 L1.7 102.95 A1.70079 1.7355 0 0 1 0 101.21 L0 88.49 A1.70079 1.7355 0 0 1 1.7 86.75 L14.17
								 86.75 A1.70079 1.7355 0 0 1 15.87 88.49 L15.87 101.21 A1.70079 1.7355 0 0 1 14.17 102.95 Z"
							class="st1"/>
				</g>
				<g id="shape7750-5" transform="translate(3.40157,-3.47099)">
					<title>path6</title>
					<rect x="0" y="93.6927" width="9.07087" height="9.25599" class="st2"/>
				</g>
				<g id="shape7751-7" transform="translate(19.2756,2.84217E-13)">
					<title>path8</title>
					<path d="M14.17 102.95 L1.7 102.95 A1.70079 1.7355 0 0 1 -0 101.21 L0 88.49 A1.70079 1.7355 0 0 1 1.7 86.75 L14.17
								 86.75 A1.70079 1.7355 0 0 1 15.87 88.49 L15.87 101.21 A1.70079 1.7355 0 0 1 14.17 102.95 Z"
							class="st1"/>
				</g>
				<g id="shape7752-9" transform="translate(22.6772,-3.47099)">
					<title>path10</title>
					<rect x="0" y="93.6927" width="9.07087" height="9.25599" class="st2"/>
				</g>
				<g id="shape7753-11" transform="translate(26.0787,-16.198)">
					<title>path12</title>
					<rect x="0" y="87.9077" width="2.26772" height="15.041" class="st3"/>
				</g>
				<g id="shape7754-13" transform="translate(14.7402,-31.239)">
					<title>path14</title>
					<path d="M24.94 90.22 C24.94 97.25 19.36 102.95 12.47 102.95 C5.58 102.95 0 97.25 0 90.22 C0 83.19 5.58 77.49
								 12.47 77.49 C19.36 77.49 24.94 83.19 24.94 90.22 Z" class="st4"/>
				</g>
				<g id="shape7755-15" transform="translate(36.2835,2.84217E-13)">
					<title>path16</title>
					<path d="M16.89 77.49 C16.89 81.15 13.9 84.11 10.2 84.11 C6.51 84.11 3.51 81.15 3.51 77.49 C3.51 73.84 6.51 70.88
								 10.2 70.88 C13.9 70.88 16.89 73.84 16.89 77.49 ZM14.38 86.75 L10.2 93.32 L6.03 86.75 L0 86.75 L0
								 102.95 L20.41 102.95 L20.41 86.75 L14.38 86.75 Z" class="st5"/>
				</g>
				<g id="shape7756-17" transform="translate(14.7662,-35.7848)">
					<title>path18</title>
					<path d="M20.46 86.59 C16.04 82.07 8.86 82.07 4.43 86.59 C0 91.1 0 98.43 4.43 102.95 L20.46 86.59 Z"
							class="st6"/>
				</g>
				<g id="shape7757-19" transform="translate(6.80315,-16.198)">
					<title>path20</title>
					<path d="M31.86 93.69 L2.27 93.69 A2.26772 2.314 -180 0 0 0 96.01 L0 102.95 L2.27 102.95 L2.27 96.01 L32.22 96.01
								 A7.40409 7.5552 0 0 1 31.86 93.69 Z" class="st3"/>
				</g>
			</g>
		</g>
	</g>
</svg>
